X: 21273
T: COUNTESS OF CASSILLIS'S REEL
R: reel
B: K\"ohler's Violin Repository, v.2, 1885 p.127 #3
F: http://www.archive.org/details/klersviolinrepos02rugg
Z: 2012 John Chambers <jc:trillian.mit.edu>
M: C|
L: 1/8
K: A
uF | ECA,C E2(EF) | ABcA BB,B,F | ECA,C E2(EF) | EFAB cAA :|
ue | A<A(cA) (eA)=gA | fdec dBBd | A<A (cA) (eA)Aa | (f/g/a) (e>f) cAA ||
 e | A<A(cA) (eA)A=g | fdec dBBd | cAGA FAEA | (c/d/e) (f/g/a) cAA "^D.C."|]

%%sep 2 1 500

